X: 1957
T: Violet's Polka
B: australian traditional tunes wiki
M:2/4
L:1/8
R: Polka
Q: 1/4=100
K:C
V:1 
Bd/B/ GB | BAA2 | Ac/A/ FA | AGG2 | Bd/B/ GB | BAA2 | Ac/A/ FA | AGG2 |
BB A>G | FA A2 | cc B>A | GBB2 | BBg2 | fee2 | dd BG | AGG2:|
% abcbook-tune_id 6342d5be610006bf7a068a54


% abcbook-boost 0
% abcbook-tablature 
% abcbook-transpose 
% abcbook-lastupdated 1665324490300
% abcbook-soundfonts 
% abcbook-repeats 1
% NFF Book 2022
% Bush Traditions recording played by Chris Hayden

